; generated by Slic3r 1.3.1-dev on 2018-10-28 at 18:43:11

; external perimeters extrusion width = 0.44mm (1.22mm^3/s)
; perimeters extrusion width = 0.56mm (2.38mm^3/s)
; infill extrusion width = 0.50mm (5.61mm^3/s)
; solid infill extrusion width = 0.56mm (4.75mm^3/s)
; top infill extrusion width = 0.56mm (3.17mm^3/s)

M107
M190 S100 ; set bed temperature and wait for it to be reached
M104 S205 ; set temperature
G28 ; home all axes
G1 Z5 F5000 ; lift nozzle

; Filament gcode

M109 S205 ; set temperature and wait for it to be reached
G21 ; set units to millimeters
G90 ; use absolute coordinates
M82 ; use absolute distances for extrusion
G92 E0
G92 E0
G1 Z0.200 F9000.000
G1 E-3.00000 F2400.00000
G92 E0
G1 X80.181 Y80.854 F9000.000
G1 E3.00000 F2400.00000
G1 F1800
G1 X81.923 Y79.437 E3.06669
G1 X85.000 Y78.643 E3.16103
G1 X115.000 Y78.643 E4.05177
G1 X117.211 Y79.040 E4.11847
G1 X119.146 Y80.181 E4.18516
G1 X120.563 Y81.923 E4.25185
G1 X121.357 Y85.000 E4.34619
G1 X121.357 Y115.000 E5.23693
G1 X120.960 Y117.211 E5.30363
G1 X119.819 Y119.146 E5.37032
G1 X118.077 Y120.563 E5.43701
G1 X115.000 Y121.357 E5.53135
G1 X85.000 Y121.357 E6.42209
G1 X82.789 Y120.960 E6.48879
G1 X80.854 Y119.819 E6.55548
G1 X79.437 Y118.077 E6.62217
G1 X78.643 Y115.000 E6.71651
G1 X78.643 Y85.000 E7.60725
G1 X79.040 Y82.789 E7.67395
G1 X80.150 Y80.906 E7.73886
G1 E4.73886 F2400.00000
G92 E0
G1 X114.086 Y114.086 F9000.000
G1 E3.00000 F2400.00000
G1 F1800
G1 X85.914 Y114.086 E3.83645
G1 X85.914 Y85.914 E4.67291
G1 X114.086 Y85.914 E5.50936
G1 X114.086 Y114.026 E6.34403
G1 X114.443 Y114.443 F9000.000
G1 F1800
G1 X85.557 Y114.443 E7.20169
G1 X85.557 Y85.557 E8.05935
G1 X114.443 Y85.557 E8.91701
G1 X114.443 Y114.383 E9.77288
G1 X114.800 Y114.800 F9000.000
G1 F1800
G1 X85.200 Y114.800 E10.65175
G1 X85.200 Y85.200 E11.53061
G1 X114.800 Y85.200 E12.40947
G1 X114.800 Y114.740 E13.28655
G1 X114.414 Y114.696 F9000.000
G1 X113.590 Y113.868 F9000.000
G1 F1800
G1 X113.868 Y113.590 E13.29830
G1 X113.868 Y113.081 E13.31350
G1 X113.081 Y113.868 E13.34675
G1 X112.573 Y113.868 E13.36195
G1 X113.868 Y112.573 E13.41669
G1 X113.868 Y112.064 E13.43190
G1 X112.064 Y113.868 E13.50814
G1 X111.556 Y113.868 E13.52334
G1 X113.868 Y111.556 E13.62108
G1 X113.868 Y111.047 E13.63628
G1 X111.047 Y113.868 E13.75552
G1 X110.539 Y113.868 E13.77072
G1 X113.868 Y110.539 E13.91146
G1 X113.868 Y110.030 E13.92666
G1 X110.030 Y113.868 E14.08889
G1 X109.522 Y113.868 E14.10409
G1 X113.868 Y109.522 E14.28782
G1 X113.868 Y109.014 E14.30303
G1 X109.014 Y113.868 E14.50826
G1 X108.505 Y113.868 E14.52346
G1 X113.868 Y108.505 E14.75018
G1 X113.868 Y107.997 E14.76539
G1 X107.997 Y113.868 E15.01361
G1 X107.488 Y113.868 E15.02881
G1 X113.868 Y107.488 E15.29854
G1 X113.868 Y106.980 E15.31374
G1 X106.980 Y113.868 E15.60496
G1 X106.471 Y113.868 E15.62016
G1 X113.868 Y106.471 E15.93288
G1 X113.868 Y105.963 E15.94808
G1 X105.963 Y113.868 E16.28230
G1 X105.454 Y113.868 E16.29750
G1 X113.868 Y105.454 E16.65321
G1 X113.868 Y104.946 E16.66841
G1 X104.946 Y113.868 E17.04563
G1 X104.437 Y113.868 E17.06083
G1 X113.868 Y104.437 E17.45954
G1 X113.868 Y103.929 E17.47474
G1 X103.929 Y113.868 E17.89495
G1 X103.420 Y113.868 E17.91015
G1 X113.868 Y103.420 E18.35186
G1 X113.868 Y102.912 E18.36706
G1 X102.912 Y113.868 E18.83026
G1 X102.403 Y113.868 E18.84546
G1 X113.868 Y102.403 E19.33017
G1 X113.868 Y101.895 E19.34537
G1 X101.895 Y113.868 E19.85157
G1 X101.386 Y113.868 E19.86677
G1 X113.868 Y101.386 E20.39447
G1 X113.868 Y100.878 E20.40967
G1 X100.878 Y113.868 E20.95886
G1 X100.370 Y113.868 E20.97406
G1 X113.868 Y100.370 E21.54476
G1 X113.868 Y99.861 E21.55996
G1 X99.861 Y113.868 E22.15215
G1 X99.353 Y113.868 E22.16735
G1 X113.868 Y99.353 E22.78104
G1 X113.868 Y98.844 E22.79624
G1 X98.844 Y113.868 E23.43143
G1 X98.336 Y113.868 E23.44663
G1 X113.868 Y98.336 E24.10332
G1 X113.868 Y97.827 E24.11852
G1 X97.827 Y113.868 E24.79670
G1 X97.319 Y113.868 E24.81190
G1 X113.868 Y97.319 E25.51158
G1 X113.868 Y96.810 E25.52679
G1 X96.810 Y113.868 E26.24796
G1 X96.302 Y113.868 E26.26317
G1 X113.868 Y96.302 E27.00584
G1 X113.868 Y95.793 E27.02104
G1 X95.793 Y113.868 E27.78522
G1 X95.285 Y113.868 E27.80042
G1 X113.868 Y95.285 E28.58609
G1 X113.868 Y94.776 E28.60129
G1 X94.776 Y113.868 E29.40846
G1 X94.268 Y113.868 E29.42366
G1 X113.868 Y94.268 E30.25233
G1 X113.868 Y93.759 E30.26753
G1 X93.759 Y113.868 E31.11770
G1 X93.251 Y113.868 E31.13290
G1 X113.868 Y93.251 E32.00457
G1 X113.868 Y92.742 E32.01977
G1 X92.742 Y113.868 E32.91293
G1 X92.234 Y113.868 E32.92813
G1 X113.868 Y92.234 E33.84279
G1 X113.868 Y91.726 E33.85799
G1 X91.726 Y113.868 E34.79415
G1 X91.217 Y113.868 E34.80935
G1 X113.868 Y91.217 E35.76701
G1 X113.868 Y90.709 E35.78221
G1 X90.709 Y113.868 E36.76136
G1 X90.200 Y113.868 E36.77656
G1 X113.868 Y90.200 E37.77721
G1 X113.868 Y89.692 E37.79241
G1 X89.692 Y113.868 E38.81456
G1 X89.183 Y113.868 E38.82977
G1 X113.868 Y89.183 E39.87341
G1 X113.868 Y88.675 E39.88861
G1 X88.675 Y113.868 E40.95376
G1 X88.166 Y113.868 E40.96896
G1 X113.868 Y88.166 E42.05560
G1 X113.868 Y87.658 E42.07080
G1 X87.658 Y113.868 E43.17895
G1 X87.149 Y113.868 E43.19415
G1 X113.868 Y87.149 E44.32379
G1 X113.868 Y86.641 E44.33899
G1 X86.641 Y113.868 E45.49012
G1 X86.132 Y113.868 E45.50532
G1 X113.868 Y86.132 E46.67796
G1 X113.359 Y86.132 E46.69316
G1 X86.132 Y113.359 E47.84430
G1 X86.132 Y112.851 E47.85950
G1 X112.851 Y86.132 E48.98914
G1 X112.342 Y86.132 E49.00434
G1 X86.132 Y112.342 E50.11248
G1 X86.132 Y111.834 E50.12768
G1 X111.834 Y86.132 E51.21433
G1 X111.325 Y86.132 E51.22953
G1 X86.132 Y111.325 E52.29467
G1 X86.132 Y110.817 E52.30988
G1 X110.817 Y86.132 E53.35352
G1 X110.308 Y86.132 E53.36873
G1 X86.132 Y110.308 E54.39088
G1 X86.132 Y109.800 E54.40608
G1 X109.800 Y86.132 E55.40673
G1 X109.291 Y86.132 E55.42193
G1 X86.132 Y109.291 E56.40109
G1 X86.132 Y108.783 E56.41629
G1 X108.783 Y86.132 E57.37394
G1 X108.274 Y86.132 E57.38915
G1 X86.132 Y108.274 E58.32530
G1 X86.132 Y107.766 E58.34051
G1 X107.766 Y86.132 E59.25517
G1 X107.258 Y86.132 E59.27037
G1 X86.132 Y107.258 E60.16353
G1 X86.132 Y106.749 E60.17873
G1 X106.749 Y86.132 E61.05040
G1 X106.241 Y86.132 E61.06560
G1 X86.132 Y106.241 E61.91577
G1 X86.132 Y105.732 E61.93097
G1 X105.732 Y86.132 E62.75964
G1 X105.224 Y86.132 E62.77484
G1 X86.132 Y105.224 E63.58201
G1 X86.132 Y104.715 E63.59721
G1 X104.715 Y86.132 E64.38289
G1 X104.207 Y86.132 E64.39809
G1 X86.132 Y104.207 E65.16226
G1 X86.132 Y103.698 E65.17746
G1 X103.698 Y86.132 E65.92014
G1 X103.190 Y86.132 E65.93534
G1 X86.132 Y103.190 E66.65652
G1 X86.132 Y102.681 E66.67173
G1 X102.681 Y86.132 E67.37141
G1 X102.173 Y86.132 E67.38661
G1 X86.132 Y102.173 E68.06479
G1 X86.132 Y101.664 E68.07999
G1 X101.664 Y86.132 E68.73668
G1 X101.156 Y86.132 E68.75188
G1 X86.132 Y101.156 E69.38707
G1 X86.132 Y100.647 E69.40227
G1 X100.647 Y86.132 E70.01596
G1 X100.139 Y86.132 E70.03116
G1 X86.132 Y100.139 E70.62336
G1 X86.132 Y99.630 E70.63856
G1 X99.630 Y86.132 E71.20925
G1 X99.122 Y86.132 E71.22445
G1 X86.132 Y99.122 E71.77365
G1 X86.132 Y98.614 E71.78885
G1 X98.614 Y86.132 E72.31655
G1 X98.105 Y86.132 E72.33175
G1 X86.132 Y98.105 E72.83795
G1 X86.132 Y97.597 E72.85316
G1 X97.597 Y86.132 E73.33786
G1 X97.088 Y86.132 E73.35306
G1 X86.132 Y97.088 E73.81627
G1 X86.132 Y96.580 E73.83147
G1 X96.580 Y86.132 E74.27317
G1 X96.071 Y86.132 E74.28838
G1 X86.132 Y96.071 E74.70859
G1 X86.132 Y95.563 E74.72379
G1 X95.563 Y86.132 E75.12250
G1 X95.054 Y86.132 E75.13770
G1 X86.132 Y95.054 E75.51491
G1 X86.132 Y94.546 E75.53012
G1 X94.546 Y86.132 E75.88583
G1 X94.037 Y86.132 E75.90103
G1 X86.132 Y94.037 E76.23525
G1 X86.132 Y93.529 E76.25045
G1 X93.529 Y86.132 E76.56317
G1 X93.020 Y86.132 E76.57837
G1 X86.132 Y93.020 E76.86960
G1 X86.132 Y92.512 E76.88480
G1 X92.512 Y86.132 E77.15452
G1 X92.003 Y86.132 E77.16972
G1 X86.132 Y92.003 E77.41795
G1 X86.132 Y91.495 E77.43315
G1 X91.495 Y86.132 E77.65988
G1 X90.986 Y86.132 E77.67508
G1 X86.132 Y90.986 E77.88031
G1 X86.132 Y90.478 E77.89551
G1 X90.478 Y86.132 E78.07925
G1 X89.970 Y86.132 E78.09445
G1 X86.132 Y89.970 E78.25668
G1 X86.132 Y89.461 E78.27189
G1 X89.461 Y86.132 E78.41262
G1 X88.953 Y86.132 E78.42782
G1 X86.132 Y88.953 E78.54706
G1 X86.132 Y88.444 E78.56226
G1 X88.444 Y86.132 E78.66001
G1 X87.936 Y86.132 E78.67521
G1 X86.132 Y87.936 E78.75145
G1 X86.132 Y87.427 E78.76665
G1 X87.427 Y86.132 E78.82140
G1 X86.919 Y86.132 E78.83660
G1 X86.132 Y86.919 E78.86985
G1 X86.132 Y86.410 E78.88505
G1 X86.410 Y86.132 E78.89680


M104 S200 ; set temperature
M140 S90 ; set bed temperature
G1 Z0.350 F9000.000
G1 X113.784 Y113.784 F9000.000
G1 F1800
G1 X86.216 Y113.784 E79.80424
G1 X86.216 Y86.216 E80.71169
G1 X113.784 Y86.216 E81.61913
G1 X113.784 Y113.724 E82.52460
G1 X114.312 Y114.312 F9000.000
G1 F1800
G1 X85.688 Y114.312 E83.46679
G1 X85.688 Y85.688 E84.40898
G1 X114.312 Y85.688 E85.35117
G1 X114.312 Y114.252 E86.29139
G1 X114.780 Y114.780 F9000.000
G1 F1200
G1 X85.220 Y114.780 E87.04316
G1 X85.220 Y85.220 E87.79494
G1 X114.780 Y85.220 E88.54671
G1 X114.780 Y114.720 E89.29696
G1 X114.394 Y114.676 F9000.000
G1 X113.462 Y86.949 F9000.000
G1 F3600
G1 X113.051 Y86.538 E89.31609
G1 X112.304 Y86.538 E89.34068
G1 X113.462 Y87.696 E89.39460
G1 X113.462 Y88.443 E89.41919
G1 X111.557 Y86.538 E89.50789
G1 X110.811 Y86.538 E89.53249
G1 X113.462 Y89.189 E89.65597
G1 X113.462 Y89.936 E89.68056
G1 X110.064 Y86.538 E89.83883
G1 X109.317 Y86.538 E89.86343
G1 X113.462 Y90.683 E90.05648
G1 X113.462 Y91.430 E90.08107
G1 X108.570 Y86.538 E90.30891
G1 X107.823 Y86.538 E90.33351
G1 X113.462 Y92.177 E90.59613
G1 X113.462 Y92.924 E90.62072
G1 X107.076 Y86.538 E90.91813
G1 X106.330 Y86.538 E90.94272
G1 X113.462 Y93.670 E91.27491
G1 X113.462 Y94.417 E91.29951
G1 X105.583 Y86.538 E91.66648
G1 X104.836 Y86.538 E91.69108
G1 X113.462 Y95.164 E92.09284
G1 X113.462 Y95.911 E92.11743
G1 X104.089 Y86.538 E92.55398
G1 X103.342 Y86.538 E92.57857
G1 X113.462 Y96.658 E93.04990
G1 X113.462 Y97.405 E93.07450
G1 X102.595 Y86.538 E93.58061
G1 X101.848 Y86.538 E93.60521
G1 X113.462 Y98.152 E94.14611
G1 X113.462 Y98.898 E94.17070
G1 X101.102 Y86.538 E94.74638
G1 X100.355 Y86.538 E94.77098
G1 X113.462 Y99.645 E95.38145
G1 X113.462 Y100.392 E95.40604
G1 X99.608 Y86.538 E96.05130
G1 X98.861 Y86.538 E96.07589
G1 X113.462 Y101.139 E96.75593
G1 X113.462 Y101.886 E96.78052
G1 X98.114 Y86.538 E97.49534
G1 X97.367 Y86.538 E97.51994
G1 X113.462 Y102.633 E98.26955
G1 X113.462 Y103.379 E98.29414
G1 X96.621 Y86.538 E99.07853
G1 X95.874 Y86.538 E99.10313
G1 X113.462 Y104.126 E99.92230
G1 X113.462 Y104.873 E99.94690
G1 X95.127 Y86.538 E100.80086
G1 X94.380 Y86.538 E100.82546
G1 X113.462 Y105.620 E101.71420
G1 X113.462 Y106.367 E101.73880
G1 X93.633 Y86.538 E102.66232
G1 X92.886 Y86.538 E102.68692
G1 X113.462 Y107.114 E103.64523
G1 X113.462 Y107.861 E103.66983
G1 X92.139 Y86.538 E104.66293
G1 X91.393 Y86.538 E104.68753
G1 X113.462 Y108.607 E105.71541
G1 X113.462 Y109.354 E105.74000
G1 X90.646 Y86.538 E106.80267
G1 X89.899 Y86.538 E106.82727
G1 X113.462 Y110.101 E107.92472
G1 X113.462 Y110.848 E107.94932
G1 X89.152 Y86.538 E109.08155
G1 X88.405 Y86.538 E109.10615
G1 X113.462 Y111.595 E110.27317
G1 X113.462 Y112.342 E110.29777
G1 X87.658 Y86.538 E111.49957
G1 X86.912 Y86.538 E111.52417
G1 X113.462 Y113.088 E112.76076
G1 X113.462 Y113.462 E112.77306
G1 X113.088 Y113.462 E112.78536
G1 X86.538 Y86.912 E114.02195
G1 X86.538 Y87.658 E114.04654
G1 X112.342 Y113.462 E115.24835
G1 X111.595 Y113.462 E115.27295
G1 X86.538 Y88.405 E116.43997
G1 X86.538 Y89.152 E116.46457
G1 X110.848 Y113.462 E117.59680
G1 X110.101 Y113.462 E117.62140
G1 X86.538 Y89.899 E118.71885
G1 X86.538 Y90.646 E118.74345
G1 X109.354 Y113.462 E119.80612
G1 X108.607 Y113.462 E119.83071
G1 X86.538 Y91.393 E120.85860
G1 X86.538 Y92.139 E120.88319
G1 X107.861 Y113.462 E121.87629
G1 X107.114 Y113.462 E121.90089
G1 X86.538 Y92.886 E122.85920
G1 X86.538 Y93.633 E122.88380
G1 X106.367 Y113.462 E123.80733
G1 X105.620 Y113.462 E123.83192
G1 X86.538 Y94.380 E124.72067
G1 X86.538 Y95.127 E124.74527
G1 X104.873 Y113.462 E125.59923
G1 X104.126 Y113.462 E125.62382
G1 X86.538 Y95.874 E126.44300
G1 X86.538 Y96.621 E126.46759
G1 X103.379 Y113.462 E127.25198
G1 X102.633 Y113.462 E127.27658
G1 X86.538 Y97.367 E128.02619
G1 X86.538 Y98.114 E128.05078
G1 X101.886 Y113.462 E128.76561
G1 X101.139 Y113.462 E128.79020
G1 X86.538 Y98.861 E129.47024
G1 X86.538 Y99.608 E129.49483
G1 X100.392 Y113.462 E130.14009
G1 X99.645 Y113.462 E130.16468
G1 X86.538 Y100.355 E130.77515
G1 X86.538 Y101.102 E130.79975
G1 X98.898 Y113.462 E131.37543
G1 X98.152 Y113.462 E131.40003
G1 X86.538 Y101.848 E131.94092
G1 X86.538 Y102.595 E131.96552
G1 X97.405 Y113.462 E132.47163
G1 X96.658 Y113.462 E132.49623
G1 X86.538 Y103.342 E132.96756
G1 X86.538 Y104.089 E132.99216
G1 X95.911 Y113.462 E133.42870
G1 X95.164 Y113.462 E133.45330
G1 X86.538 Y104.836 E133.85506
G1 X86.538 Y105.583 E133.87965
G1 X94.417 Y113.462 E134.24663
G1 X93.670 Y113.462 E134.27122
G1 X86.538 Y106.330 E134.60342
G1 X86.538 Y107.076 E134.62801
G1 X92.924 Y113.462 E134.92542
G1 X92.177 Y113.462 E134.95001
G1 X86.538 Y107.823 E135.21263
G1 X86.538 Y108.570 E135.23723
G1 X91.430 Y113.462 E135.46507
G1 X90.683 Y113.462 E135.48966
G1 X86.538 Y109.317 E135.68272
G1 X86.538 Y110.064 E135.70731
G1 X89.936 Y113.462 E135.86558
G1 X89.189 Y113.462 E135.89018
G1 X86.538 Y110.811 E136.01366
G1 X86.538 Y111.557 E136.03825
G1 X88.443 Y113.462 E136.12695
G1 X87.696 Y113.462 E136.15155
G1 X86.538 Y112.304 E136.20546
G1 X86.538 Y113.051 E136.23006
G1 X86.949 Y113.462 E136.24918
G1 Z0.500 F9000.000
G1 X113.784 Y113.784 F9000.000
G1 F1800
G1 X86.216 Y113.784 E137.15662
G1 X86.216 Y86.216 E138.06407
G1 X113.784 Y86.216 E138.97151
G1 X113.784 Y113.724 E139.87698
G1 X114.312 Y114.312 F9000.000
G1 F1800
G1 X85.688 Y114.312 E140.81917
G1 X85.688 Y85.688 E141.76136
G1 X114.312 Y85.688 E142.70355
G1 X114.312 Y114.252 E143.64377
G1 X114.780 Y114.780 F9000.000
G1 F1200
G1 X85.220 Y114.780 E144.39554
G1 X85.220 Y85.220 E145.14732
G1 X114.780 Y85.220 E145.89909
G1 X114.780 Y114.720 E146.64934
G1 X114.394 Y114.676 F9000.000
G1 X113.051 Y113.462 F9000.000
G1 F3600
G1 X113.462 Y113.051 E146.66847
G1 X113.462 Y112.304 E146.69306
G1 X112.304 Y113.462 E146.74698
G1 X111.557 Y113.462 E146.77157
G1 X113.462 Y111.557 E146.86027
G1 X113.462 Y110.811 E146.88487
G1 X110.811 Y113.462 E147.00835
G1 X110.064 Y113.462 E147.03294
G1 X113.462 Y110.064 E147.19121
G1 X113.462 Y109.317 E147.21581
G1 X109.317 Y113.462 E147.40886
G1 X108.570 Y113.462 E147.43345
G1 X113.462 Y108.570 E147.66129
G1 X113.462 Y107.823 E147.68589
G1 X107.823 Y113.462 E147.94851
G1 X107.076 Y113.462 E147.97310
G1 X113.462 Y107.076 E148.27051
G1 X113.462 Y106.330 E148.29510
G1 X106.330 Y113.462 E148.62729
G1 X105.583 Y113.462 E148.65189
G1 X113.462 Y105.583 E149.01886
G1 X113.462 Y104.836 E149.04346
G1 X104.836 Y113.462 E149.44522
G1 X104.089 Y113.462 E149.46981
G1 X113.462 Y104.089 E149.90636
G1 X113.462 Y103.342 E149.93095
G1 X103.342 Y113.462 E150.40228
G1 X102.595 Y113.462 E150.42688
G1 X113.462 Y102.595 E150.93299
G1 X113.462 Y101.848 E150.95759
G1 X101.848 Y113.462 E151.49849
G1 X101.102 Y113.462 E151.52308
G1 X113.462 Y101.102 E152.09876
G1 X113.462 Y100.355 E152.12336
G1 X100.355 Y113.462 E152.73383
G1 X99.608 Y113.462 E152.75842
G1 X113.462 Y99.608 E153.40368
G1 X113.462 Y98.861 E153.42827
G1 X98.861 Y113.462 E154.10831
G1 X98.114 Y113.462 E154.13290
G1 X113.462 Y98.114 E154.84772
G1 X113.462 Y97.367 E154.87232
G1 X97.367 Y113.462 E155.62193
G1 X96.621 Y113.462 E155.64652
G1 X113.462 Y96.621 E156.43091
G1 X113.462 Y95.874 E156.45551
G1 X95.874 Y113.462 E157.27468
G1 X95.127 Y113.462 E157.29928
G1 X113.462 Y95.127 E158.15324
G1 X113.462 Y94.380 E158.17784
G1 X94.380 Y113.462 E159.06658
G1 X93.633 Y113.462 E159.09118
G1 X113.462 Y93.633 E160.01470
G1 X113.462 Y92.886 E160.03930
G1 X92.886 Y113.462 E160.99761
G1 X92.139 Y113.462 E161.02221
G1 X113.462 Y92.139 E162.01531
G1 X113.462 Y91.393 E162.03990
G1 X91.393 Y113.462 E163.06779
G1 X90.646 Y113.462 E163.09238
